X: 3053
T: UP AN' WAUR THEM A' WULLIE
Q:"Strathspey."
R: Strathspey.
%R:strathspey, shottish
B: James Kerr "Merry Melodies" v.3 p.8 #53
Z: 2016 John Chambers <jc:trillian.mit.edu>
M: C
L: 1/8
K: G
D |\
vG<G B>uG c2 (c<e) | G<G B>G A3 D |\
G<G B>G c>de>g | (3dec (3BcA G3 ::\
d |\
g<g d>B c2 (c<e) | g<g d>B A3 f |\
g<g d>B c>de>g | (3dec (3BcA G3 :|

%%sep 1 1 500
%%sep 1 1 500

